src/devices/22/bluetooth.svg

<svg width="22" height="22" version="1.1" xmlns="http://www.w3.org/2000/svg">
 <defs>
  <style id="current-color-scheme" type="text/css">.ColorScheme-Text { color:#363636; } .ColorScheme-Highlight { color:#5294e2; }</style>
 </defs>
 <path class="ColorScheme-Text" d="m10.998 3v7.041l-3.293-3.293-2e-3 2e-3c-0.35575-0.35595-0.99605-0.99609-0.99605-0.99609l-0.70703 0.70703 4.5449 4.541-4.5449 4.541 0.70703 0.70703s0.64035-0.64009 0.99609-0.99609h2e-3l3.2949-3.293v7.0391h1l4-4-4-4 4-4-4-4zm1.002 1.416 2.5859 2.5859-2.5859 2.5859zm0 8 2.5859 2.5859-2.5859 2.5859z" fill="currentColor"/>
</svg>

<svg xmlns="http://www.w3.org/2000/svg" width="22" height="22">
    <defs>
        <style id="current-color-scheme" type="text/css">
            .ColorScheme-Highlight{color:#a0b6cb}
        </style>
    </defs>
    <path fill="currentColor" d="M10.998 3v7.041L7.705 6.748l-.002.002-.996-.996L6 6.46 10.545 11 6 15.544l.707.707.996-.996h.002L11 11.96V19h1l4-4-4-4 4-4-4-4zM12 4.416l2.586 2.586L12 9.588zm0 8 2.586 2.586L12 17.588z" style="color:#050505;opacity:.7"/>
</svg>
